svgs/sharp-light/baht-sign.svg

<svg xmlns="http://www.w3.org/2000/svg" viewBox="0 0 320 512"><!--! Font Awesome Pro 6.6.0 by @fontawesome - https://fontawesome.com License - https://fontawesome.com/license (Commercial License) Copyright 2024 Fonticons, Inc. --><path d="M160 0L128 0l0 64L32 64 0 64 0 96 0 240l0 32L0 416l0 32 32 0 96 0 0 64 32 0 0-64 56 0c57.4 0 104-46.6 104-104c0-44.7-28.2-82.8-67.8-97.5C274.1 227.4 288 199.3 288 168c0-57.4-46.6-104-104-104l-24 0 0-64zM128 96l0 144-96 0L32 96l96 0zm32 144l0-144 24 0c39.8 0 72 32.2 72 72s-32.2 72-72 72l-24 0zm-32 32l0 144-96 0 0-144 96 0zm32 144l0-144 24 0 32 0c39.8 0 72 32.2 72 72s-32.2 72-72 72l-56 0z"/></svg>

<svg xmlns="http://www.w3.org/2000/svg" viewBox="0 0 320 512"><!--! Font Awesome Pro 6.4.2 by @fontawesome - https://fontawesome.com License - https://fontawesome.com/license (Commercial License) Copyright 2023 Fonticons, Inc. --><path d="M160 0H128V64H32 0V96 240v32V416v32H32h96v64h32V448h56c57.4 0 104-46.6 104-104c0-44.7-28.2-82.8-67.8-97.5C274.1 227.4 288 199.3 288 168c0-57.4-46.6-104-104-104H160V0zM128 96V240H32V96h96zm32 144V96h24c39.8 0 72 32.2 72 72s-32.2 72-72 72H160zm-32 32V416H32V272h96zm32 144V272h24 32c39.8 0 72 32.2 72 72s-32.2 72-72 72H160z"/></svg>
